assets/svgs/i-search.svg

<svg fill="none" height="24" viewBox="0 0 24 24" width="24" xmlns="http://www.w3.org/2000/svg"><path clip-rule="evenodd" d="m17.9363 16.5257 5.7698 5.7698c.3919.3918.3919 1.0188 0 1.4106-.3918.3919-1.0237.3919-1.4155 0l-5.7698-5.7649c-1.7437 1.4302-3.9722 2.2874-6.4065 2.2874-5.58859 0-10.1143-4.5306-10.1143-10.1143 0-5.58369 4.52571-10.1143 10.1143-10.1143 5.5837 0 10.1143 4.53061 10.1143 10.1143 0 2.4343-.8621 4.6677-2.2923 6.4114zm-15.92814-6.4115c0 4.4669 3.63429 8.1012 8.10614 8.1012 4.4669 0 8.1061-3.6343 8.1061-8.1012 0-4.46696-3.6392-8.10614-8.1061-8.10614-4.47185 0-8.10614 3.63918-8.10614 8.10614z" fill="#727c8e" fill-rule="evenodd"/></svg>

<svg xmlns="http://www.w3.org/2000/svg" xmlns:xlink="http://www.w3.org/1999/xlink" fill="none" version="1.1" width="24" height="24" viewBox="0 0 24 24"><g><g><path d="M17.9363,16.5257L23.7061,22.2955C24.098,22.6873,24.098,23.3143,23.7061,23.7061C23.3143,24.098,22.6824,24.098,22.2906,23.7061L16.5208,17.9412C14.7771,19.3714,12.5486,20.2286,10.1143,20.2286C4.52571,20.2286,0,15.698,0,10.1143C0,4.53061,4.52571,0,10.1143,0C15.698,0,20.2286,4.53061,20.2286,10.1143C20.2286,12.5486,19.3665,14.782,17.9363,16.5257ZM2.00806,10.1142C2.00806,14.5811,5.64234,18.2154,10.1142,18.2154C14.5811,18.2154,18.2203,14.5811,18.2203,10.1142C18.2203,5.64724,14.5811,2.00806,10.1142,2.00806C5.64234,2.00806,2.00806,5.64724,2.00806,10.1142Z" fill-rule="evenodd" fill="#727C8E" fill-opacity="1"/></g></g></svg>
